build/logo/RabbitOutline.svg

<svg xmlns="http://www.w3.org/2000/svg" fill="none" viewBox="0 0 24 24" focusable="false"><path d="M0 0H24V24H0z"/><path fill="#74767B" fill-rule="evenodd" d="M3.93311 5.57505C3.93311 4.66378 4.67184 3.92505 5.58311 3.92505L6.62241 3.92505C7.53368 3.92505 8.27241 4.66378 8.27241 5.57505L8.27241 9.84162L9.83848 9.84162L9.83848 5.57505C9.83848 4.66378 10.5772 3.92505 11.4885 3.92505L12.5278 3.92505C13.4391 3.92505 14.1778 4.66378 14.1778 5.57505L14.1778 9.84162L18.4181 9.84162C19.3293 9.84162 20.0681 10.5803 20.0681 11.4916L20.0681 18.2443C20.0681 19.1555 19.3293 19.8943 18.4181 19.8943L5.58311 19.8943C4.67183 19.8943 3.93311 19.1555 3.93311 18.2443L3.93311 5.57505ZM5.58311 5.22505C5.38981 5.22505 5.23311 5.38175 5.23311 5.57505L5.23311 18.2443C5.23311 18.4376 5.38981 18.5943 5.58311 18.5943L18.4181 18.5943C18.6114 18.5943 18.7681 18.4376 18.7681 18.2443L18.7681 11.4916C18.7681 11.2983 18.6114 11.1416 18.4181 11.1416L13.5278 11.1416C13.1688 11.1416 12.8778 10.8506 12.8778 10.4916L12.8778 5.57505C12.8778 5.38175 12.7211 5.22505 12.5278 5.22505L11.4885 5.22505C11.2952 5.22505 11.1385 5.38175 11.1385 5.57505L11.1385 10.4916C11.1385 10.8506 10.8475 11.1416 10.4885 11.1416L7.62241 11.1416C7.26343 11.1416 6.97241 10.8506 6.97241 10.4916L6.97241 5.57505C6.97241 5.38175 6.81571 5.22505 6.62241 5.22505L5.58311 5.22505ZM14.4503 13.9599C14.257 13.9599 14.1003 14.1166 14.1003 14.3099L14.1003 15.467C14.1003 15.6603 14.257 15.817 14.4503 15.817L15.6075 15.817C15.8008 15.817 15.9575 15.6603 15.9575 15.467L15.9575 14.3099C15.9575 14.1166 15.8008 13.9599 15.6075 13.9599L14.4503 13.9599ZM12.8003 14.3099C12.8003 13.3986 13.5391 12.6599 14.4503 12.6599L15.6075 12.6599C16.5188 12.6599 17.2575 13.3986 17.2575 14.3099L17.2575 15.467C17.2575 16.3783 16.5188 17.117 15.6075 17.117L14.4503 17.117C13.5391 17.117 12.8003 16.3783 12.8003 15.467L12.8003 14.3099Z"/></svg>

<svg xmlns="http://www.w3.org/2000/svg" fill="none" viewBox="0 0 24 24" focusable="false"><path fill="#74767B" fill-rule="evenodd" d="M3.93 5.57c0-.91.74-1.65 1.65-1.65h1.04c.91 0 1.65.74 1.65 1.65v4.27h1.56V5.57c0-.91.74-1.65 1.65-1.65h1.04c.91 0 1.65.74 1.65 1.65v4.27h4.24c.91 0 1.65.74 1.65 1.65v6.75c0 .91-.74 1.65-1.65 1.65H5.58c-.91 0-1.65-.74-1.65-1.65zm1.65-.35c-.2 0-.35.16-.35.35v12.67c0 .19.15.35.35.35h12.83c.2 0 .35-.16.35-.35v-6.75c0-.2-.15-.35-.35-.35h-4.89c-.36 0-.65-.29-.65-.65V5.57c0-.19-.15-.35-.35-.35h-1.04c-.19 0-.35.16-.35.35v4.92c0 .36-.29.65-.65.65H7.62c-.36 0-.65-.29-.65-.65V5.57c0-.19-.16-.35-.35-.35zm8.87 8.73c-.2 0-.35.16-.35.35v1.16c0 .2.15.35.35.35h1.15c.2 0 .35-.15.35-.35V14.3c0-.19-.15-.35-.35-.35zm-1.65.35c0-.91.73-1.65 1.65-1.65h1.15c.91 0 1.65.74 1.65 1.65v1.16c0 .91-.74 1.65-1.65 1.65h-1.15c-.92 0-1.65-.74-1.65-1.65z"/></svg>
